public/img/psychology/b9-1.svg

<?xml version="1.0" encoding="UTF-8"?> <svg xmlns="http://www.w3.org/2000/svg" width="144" height="144" viewBox="0 0 144 144" fill="none"> <path opacity="0.2" d="M36.2077 36.2048L72 0.704232L107.792 36.2048L107.795 36.2077L143.296 72L107.795 107.792L107.792 107.795L72 143.296L36.2077 107.795L36.2048 107.792L0.704232 72L36.2048 36.2077L36.2077 36.2048Z" stroke="white"></path> <path d="M65.5 57.5H75.5C79.9183 57.5 83.5 61.0817 83.5 65.5V65.5C83.5 69.9183 79.9183 73.5 75.5 73.5H60M65.5 86.5V65M60 78.5H78.5" stroke="white" stroke-linecap="round"></path> </svg>

<svg xmlns="http://www.w3.org/2000/svg" width="144" height="144" fill="none"><path opacity=".2" d="M36.208 36.205L72 .705l35.792 35.5.003.003L143.296 72l-35.501 35.792-.003.003L72 143.296l-35.792-35.501-.003-.003L.705 72l35.5-35.792.003-.003z" stroke="#fff"/><path d="M65.5 57.5h10a8 8 0 018 8v0a8 8 0 01-8 8H60m5.5 13V65M60 78.5h18.5" stroke="#fff" stroke-linecap="round"/></svg>
